X:187
T:Pwy Fydd Yma ymhen Can Mlynedd
M:3/2
L:1/4
Q:90
C:Trad.
R:Hymn
N:Contains bars of different length
K:G
G A|B3 G A B|A G3 G E|D3 G F G | A4 G A| B3 G A B|A G3 G E|
D3 G| A2 G F | G4 B c | d3 d c B | B A3 A B| c3 c B
A |
B4 B A | G3 A G F | E G3 G A | B3 G | A2 G F
| G4 ||
